packages/foundations/icons/Business/Yen.svg

<svg width="24" height="24" viewBox="0 0 24 24" fill="none" xmlns="http://www.w3.org/2000/svg">
<path d="M13.25 12C13.25 11.3096 12.6903 10.75 12 10.75C11.3096 10.75 10.75 11.3096 10.75 12H13.25Z" fill="#3D474D"/>
<path d="M13.25 12H10.75V13.3187L10.9026 13.5986C10.9899 13.7585 11.1091 13.8944 11.25 14H12.75C12.8909 13.8944 13.0101 13.7585 13.0974 13.5986L13.25 13.3187V12Z" fill="#3D474D"/>
<path fill-rule="evenodd" clip-rule="evenodd" d="M7.09736 1.40143C6.76678 0.795367 6.00749 0.572044 5.40143 0.902623C4.79537 1.2332 4.57204 1.9925 4.90262 2.59856L10.0307 12H6.99999C6.44771 12 5.99999 12.4477 5.99999 13C5.99999 13.5523 6.44771 14 6.99999 14H10.75V15H6.99999C6.44771 15 5.99999 15.4477 5.99999 16C5.99999 16.5523 6.44771 17 6.99999 17H10.75V22C10.75 22.6903 11.3096 23.25 12 23.25C12.6903 23.25 13.25 22.6903 13.25 22V17H17C17.5523 17 18 16.5523 18 16C18 15.4477 17.5523 15 17 15H13.25V14H17C17.5523 14 18 13.5523 18 13C18 12.4477 17.5523 12 17 12H13.9693L19.0974 2.59856C19.4279 1.9925 19.2046 1.2332 18.5986 0.902623C17.9925 0.572044 17.2332 0.795367 16.9026 1.40143L12 10.3896L7.09736 1.40143ZM13.25 15V17H10.75V15H13.25ZM12 10.75C12.6903 10.75 13.25 11.3096 13.25 12V13.3187L13.0974 13.5986C13.0101 13.7585 12.8909 13.8944 12.75 14H11.25C11.1091 13.8944 10.9899 13.7585 10.9026 13.5986L10.75 13.3187V12C10.75 11.3096 11.3096 10.75 12 10.75Z" fill="#3D474D"/>
<path d="M13.25 17V15H10.75V17H13.25Z" fill="#3D474D"/>
</svg>

<svg width="24" height="24" fill="none" xmlns="http://www.w3.org/2000/svg"><path d="M13.25 12a1.25 1.25 0 00-2.5 0h2.5zM13.25 12h-2.5v1.319l.153.28c.087.16.206.295.347.401h1.5c.14-.106.26-.242.347-.401l.153-.28V12z" fill="#3D474D"/><path fill-rule="evenodd" clip-rule="evenodd" d="M7.097 1.401A1.25 1.25 0 104.903 2.6L10.03 12H7a1 1 0 100 2h3.75v1H7a1 1 0 100 2h3.75v5a1.25 1.25 0 002.5 0v-5H17a1 1 0 100-2h-3.75v-1H17a1 1 0 100-2h-3.03l5.127-9.401A1.25 1.25 0 0016.903 1.4L12 10.39 7.097 1.4zM13.25 15v2h-2.5v-2h2.5zM12 10.75c.69 0 1.25.56 1.25 1.25v1.319l-.153.28a1.25 1.25 0 01-.347.401h-1.5a1.25 1.25 0 01-.347-.401l-.153-.28V12c0-.69.56-1.25 1.25-1.25z" fill="#3D474D"/><path d="M13.25 17v-2h-2.5v2h2.5z" fill="#3D474D"/></svg>
